bundle/image/pages/result/explain/img/strip-text.svg

<svg width="285" height="43" viewBox="0 0 285 43" fill="none" xmlns="http://www.w3.org/2000/svg">
<path d="M17.36 8.64C20.64 10.36 24.76 13.08 26.6 15.08L30.04 10.96C28 9 23.76 6.48 20.52 4.96L17.36 8.64ZM14.72 24.88V29.48H35.48V24.88H14.72ZM11.84 36.76V41.32H37.8V36.76H11.84ZM13.28 13.76V18.32H36.96V13.76H13.28ZM22.4 15.28V38.8H27.4V15.28H22.4ZM2.76 8.76C5.36 9.88 8.64 11.8 10.2 13.24L13 9.32C11.32 7.88 7.92 6.16 5.36 5.24L2.76 8.76ZM0.08 19.64C2.72 20.68 6.12 22.48 7.72 23.84L10.36 19.84C8.64 18.52 5.16 16.88 2.56 16L0.08 19.64ZM1.8 38.88L5.84 42.12C8.24 38.24 10.8 33.68 12.92 29.44L9.4 26.28C7 30.88 3.92 35.88 1.8 38.88ZM50.4 28.16V26.44H67.76V28.16H50.4ZM50.4 23.64V21.92H67.76V23.64H50.4ZM72.52 18.96H45.88V31.12H72.52V18.96ZM69.28 10.96L64.28 10.04C63.96 11.12 63.32 12.64 62.8 13.76L67.04 14.68C67.64 13.72 68.4 12.48 69.28 10.96ZM53.64 10.04L49.24 10.92C49.8 12.12 50.32 13.68 50.48 14.76L55.04 13.72C54.8 12.72 54.24 11.2 53.64 10.04ZM61.36 5.04H56.52V9.84H61.36V5.04ZM76.44 13.76H41.68V17.48H76.44V13.76ZM74.28 7.16H43.6V10.88H74.28V7.16ZM49.36 33.92L45.36 32.44C44.4 35.12 42.6 37.72 40.08 39.28L43.8 41.8C46.64 39.92 48.28 36.96 49.36 33.92ZM71.32 31.96L67.6 34.04C70.04 36.24 72.76 39.4 73.88 41.56L77.88 39.24C76.6 37 73.76 34.04 71.32 31.96ZM57.4 30.24L54.84 32.76C57.08 33.84 59.92 35.52 61.32 36.72L64.08 33.92C62.56 32.72 59.64 31.16 57.4 30.24ZM55.08 37.16V33H50.4V37.2C50.4 41 51.64 42.2 56.72 42.2C57.72 42.2 62.12 42.2 63.2 42.2C66.96 42.2 68.24 41.08 68.72 36.56C67.52 36.32 65.64 35.68 64.68 35.04C64.48 37.88 64.2 38.32 62.76 38.32C61.64 38.32 58.08 38.32 57.24 38.32C55.4 38.32 55.08 38.2 55.08 37.16ZM96.92 28.72H101.04L102.08 15.04L102.28 9.08H95.68L95.88 15.04L96.92 28.72ZM99 39.4C101 39.4 102.52 37.92 102.52 35.84C102.52 33.76 101 32.32 99 32.32C96.96 32.32 95.44 33.76 95.44 35.84C95.44 37.92 96.92 39.4 99 39.4Z" fill="#989898"/>
<path d="M199.36 8.64C202.64 10.36 206.76 13.08 208.6 15.08L212.04 10.96C210 9 205.76 6.48 202.52 4.96L199.36 8.64ZM196.72 24.88V29.48H217.48V24.88H196.72ZM193.84 36.76V41.32H219.8V36.76H193.84ZM195.28 13.76V18.32H218.96V13.76H195.28ZM204.4 15.28V38.8H209.4V15.28H204.4ZM184.76 8.76C187.36 9.88 190.64 11.8 192.2 13.24L195 9.32C193.32 7.88 189.92 6.16 187.36 5.24L184.76 8.76ZM182.08 19.64C184.72 20.68 188.12 22.48 189.72 23.84L192.36 19.84C190.64 18.52 187.16 16.88 184.56 16L182.08 19.64ZM183.8 38.88L187.84 42.12C190.24 38.24 192.8 33.68 194.92 29.44L191.4 26.28C189 30.88 185.92 35.88 183.8 38.88ZM232.4 28.16V26.44H249.76V28.16H232.4ZM232.4 23.64V21.92H249.76V23.64H232.4ZM254.52 18.96H227.88V31.12H254.52V18.96ZM251.28 10.96L246.28 10.04C245.96 11.12 245.32 12.64 244.8 13.76L249.04 14.68C249.64 13.72 250.4 12.48 251.28 10.96ZM235.64 10.04L231.24 10.92C231.8 12.12 232.32 13.68 232.48 14.76L237.04 13.72C236.8 12.72 236.24 11.2 235.64 10.04ZM243.36 5.04H238.52V9.84H243.36V5.04ZM258.44 13.76H223.68V17.48H258.44V13.76ZM256.28 7.16H225.6V10.88H256.28V7.16ZM231.36 33.92L227.36 32.44C226.4 35.12 224.6 37.72 222.08 39.28L225.8 41.8C228.64 39.92 230.28 36.96 231.36 33.92ZM253.32 31.96L249.6 34.04C252.04 36.24 254.76 39.4 255.88 41.56L259.88 39.24C258.6 37 255.76 34.04 253.32 31.96ZM239.4 30.24L236.84 32.76C239.08 33.84 241.92 35.52 243.32 36.72L246.08 33.92C244.56 32.72 241.64 31.16 239.4 30.24ZM237.08 37.16V33H232.4V37.2C232.4 41 233.64 42.2 238.72 42.2C239.72 42.2 244.12 42.2 245.2 42.2C248.96 42.2 250.24 41.08 250.72 36.56C249.52 36.32 247.64 35.68 246.68 35.04C246.48 37.88 246.2 38.32 244.76 38.32C243.64 38.32 240.08 38.32 239.24 38.32C237.4 38.32 237.08 38.2 237.08 37.16ZM278.92 28.72H283.04L284.08 15.04L284.28 9.08H277.68L277.88 15.04L278.92 28.72ZM281 39.4C283 39.4 284.52 37.92 284.52 35.84C284.52 33.76 283 32.32 281 32.32C278.96 32.32 277.44 33.76 277.44 35.84C277.44 37.92 278.92 39.4 281 39.4Z" fill="#989898"/>
<path d="M143.94 31.0095C143.94 31.5399 143.73 32.0486 143.355 32.4237C142.98 32.7988 142.471 33.0095 141.94 33.0095C141.41 33.0095 140.901 32.7988 140.526 32.4237C140.151 32.0486 139.94 31.5399 139.94 31.0095C139.94 30.4791 140.151 29.9704 140.526 29.5953C140.901 29.2202 141.41 29.0095 141.94 29.0095C142.471 29.0095 142.98 29.2202 143.355 29.5953C143.73 29.9704 143.94 30.4791 143.94 31.0095ZM143.44 14.5095C143.44 14.1117 143.282 13.7301 143.001 13.4488C142.72 13.1675 142.338 13.0095 141.94 13.0095C141.543 13.0095 141.161 13.1675 140.88 13.4488C140.598 13.7301 140.44 14.1117 140.44 14.5095V23.5095C140.44 23.9073 140.598 24.2889 140.88 24.5702C141.161 24.8515 141.543 25.0095 141.94 25.0095C142.338 25.0095 142.72 24.8515 143.001 24.5702C143.282 24.2889 143.44 23.9073 143.44 23.5095V14.5095Z" fill="#989898"/>
<path fill-rule="evenodd" clip-rule="evenodd" d="M137.612 2.4975C139.538 -0.8325 144.342 -0.8325 146.268 2.4975L164.202 33.5055C166.128 36.8395 163.722 41.0095 159.872 41.0095H124.008C120.156 41.0095 117.752 36.8395 119.678 33.5055L137.612 2.4975ZM143.672 3.9995C143.497 3.69549 143.244 3.44303 142.94 3.26751C142.636 3.09199 142.291 2.99959 141.94 2.99959C141.589 2.99959 141.244 3.09199 140.94 3.26751C140.636 3.44303 140.384 3.69549 140.208 3.9995L122.276 35.0075C122.1 35.3116 122.008 35.6567 122.007 36.008C122.007 36.3594 122.099 36.7046 122.275 37.009C122.451 37.3133 122.703 37.566 123.007 37.7417C123.312 37.9173 123.657 38.0097 124.008 38.0095H159.872C160.223 38.0095 160.568 37.9171 160.872 37.7415C161.176 37.566 161.429 37.3135 161.604 37.0095C161.78 36.7054 161.872 36.3606 161.872 36.0095C161.872 35.6584 161.78 35.3135 161.604 35.0095L143.672 3.9995Z" fill="#989898"/>
</svg>

<svg width="285" height="43" fill="none" xmlns="http://www.w3.org/2000/svg"><path d="M17.36 8.64c3.28 1.72 7.4 4.44 9.24 6.44l3.44-4.12C28 9 23.76 6.48 20.52 4.96l-3.16 3.68zm-2.64 16.24v4.6h20.76v-4.6H14.72zm-2.88 11.88v4.56H37.8v-4.56H11.84zm1.44-23v4.56h23.68v-4.56H13.28zm9.12 1.52V38.8h5V15.28h-5zM2.76 8.76c2.6 1.12 5.88 3.04 7.44 4.48L13 9.32c-1.68-1.44-5.08-3.16-7.64-4.08l-2.6 3.52zM.08 19.64c2.64 1.04 6.04 2.84 7.64 4.2l2.64-4c-1.72-1.32-5.2-2.96-7.8-3.84L.08 19.64zM1.8 38.88l4.04 3.24c2.4-3.88 4.96-8.44 7.08-12.68L9.4 26.28c-2.4 4.6-5.48 9.6-7.6 12.6zm48.6-10.72v-1.72h17.36v1.72H50.4zm0-4.52v-1.72h17.36v1.72H50.4zm22.12-4.68H45.88v12.16h26.64V18.96zm-3.24-8-5-.92c-.32 1.08-.96 2.6-1.48 3.72l4.24.92c.6-.96 1.36-2.2 2.24-3.72zm-15.64-.92-4.4.88c.56 1.2 1.08 2.76 1.24 3.84l4.56-1.04c-.24-1-.8-2.52-1.4-3.68zm7.72-5h-4.84v4.8h4.84v-4.8zm15.08 8.72H41.68v3.72h34.76v-3.72zm-2.16-6.6H43.6v3.72h30.68V7.16zM49.36 33.92l-4-1.48c-.96 2.68-2.76 5.28-5.28 6.84l3.72 2.52c2.84-1.88 4.48-4.84 5.56-7.88zm21.96-1.96-3.72 2.08c2.44 2.2 5.16 5.36 6.28 7.52l4-2.32c-1.28-2.24-4.12-5.2-6.56-7.28zM57.4 30.24l-2.56 2.52c2.24 1.08 5.08 2.76 6.48 3.96l2.76-2.8c-1.52-1.2-4.44-2.76-6.68-3.68zm-2.32 6.92V33H50.4v4.2c0 3.8 1.24 5 6.32 5h6.48c3.76 0 5.04-1.12 5.52-5.64-1.2-.24-3.08-.88-4.04-1.52-.2 2.84-.48 3.28-1.92 3.28h-5.52c-1.84 0-2.16-.12-2.16-1.16zm41.84-8.44h4.12l1.04-13.68.2-5.96h-6.6l.2 5.96 1.04 13.68zM99 39.4c2 0 3.52-1.48 3.52-3.56S101 32.32 99 32.32c-2.04 0-3.56 1.44-3.56 3.52S96.92 39.4 99 39.4zM199.36 8.64c3.28 1.72 7.4 4.44 9.24 6.44l3.44-4.12c-2.04-1.96-6.28-4.48-9.52-6l-3.16 3.68zm-2.64 16.24v4.6h20.76v-4.6h-20.76zm-2.88 11.88v4.56h25.96v-4.56h-25.96zm1.44-23v4.56h23.68v-4.56h-23.68zm9.12 1.52V38.8h5V15.28h-5zm-19.64-6.52c2.6 1.12 5.88 3.04 7.44 4.48l2.8-3.92c-1.68-1.44-5.08-3.16-7.64-4.08l-2.6 3.52zm-2.68 10.88c2.64 1.04 6.04 2.84 7.64 4.2l2.64-4c-1.72-1.32-5.2-2.96-7.8-3.84l-2.48 3.64zm1.72 19.24 4.04 3.24c2.4-3.88 4.96-8.44 7.08-12.68l-3.52-3.16c-2.4 4.6-5.48 9.6-7.6 12.6zm48.6-10.72v-1.72h17.36v1.72H232.4zm0-4.52v-1.72h17.36v1.72H232.4zm22.12-4.68h-26.64v12.16h26.64V18.96zm-3.24-8-5-.92c-.32 1.08-.96 2.6-1.48 3.72l4.24.92c.6-.96 1.36-2.2 2.24-3.72zm-15.64-.92-4.4.88c.56 1.2 1.08 2.76 1.24 3.84l4.56-1.04c-.24-1-.8-2.52-1.4-3.68zm7.72-5h-4.84v4.8h4.84v-4.8zm15.08 8.72h-34.76v3.72h34.76v-3.72zm-2.16-6.6H225.6v3.72h30.68V7.16zm-24.92 26.76-4-1.48c-.96 2.68-2.76 5.28-5.28 6.84l3.72 2.52c2.84-1.88 4.48-4.84 5.56-7.88zm21.96-1.96-3.72 2.08c2.44 2.2 5.16 5.36 6.28 7.52l4-2.32c-1.28-2.24-4.12-5.2-6.56-7.28zm-13.92-1.72-2.56 2.52c2.24 1.08 5.08 2.76 6.48 3.96l2.76-2.8c-1.52-1.2-4.44-2.76-6.68-3.68zm-2.32 6.92V33h-4.68v4.2c0 3.8 1.24 5 6.32 5h6.48c3.76 0 5.04-1.12 5.52-5.64-1.2-.24-3.08-.88-4.04-1.52-.2 2.84-.48 3.28-1.92 3.28h-5.52c-1.84 0-2.16-.12-2.16-1.16zm41.84-8.44h4.12l1.04-13.68.2-5.96h-6.6l.2 5.96 1.04 13.68zM281 39.4c2 0 3.52-1.48 3.52-3.56S283 32.32 281 32.32c-2.04 0-3.56 1.44-3.56 3.52s1.48 3.56 3.56 3.56zM143.94 31.01a2 2 0 1 1-4 .001 2 2 0 0 1 4-.002zm-.5-16.5a1.501 1.501 0 0 0-3 0v9a1.498 1.498 0 0 0 1.5 1.5 1.5 1.5 0 0 0 1.5-1.5v-9z" fill="#989898"/><path fill-rule="evenodd" clip-rule="evenodd" d="M137.612 2.498c1.926-3.33 6.73-3.33 8.656 0l17.934 31.008c1.926 3.334-.48 7.504-4.33 7.504h-35.864c-3.852 0-6.256-4.17-4.33-7.505l17.934-31.008zm6.06 1.501a1.996 1.996 0 0 0-1.732-1 2 2 0 0 0-1.732 1l-17.932 31.008a2.008 2.008 0 0 0-.001 2.002 2.005 2.005 0 0 0 1.733 1h35.864a2 2 0 0 0 1.732-3L143.672 4z" fill="#989898"/></svg>
